build/img/sprite/icon-facebook.svg

<svg width="30" height="30" viewBox="0 0 30 30" fill="none" xmlns="http://www.w3.org/2000/svg">
<path fill-rule="evenodd" clip-rule="evenodd" d="M30 15.0001C30 6.71625 23.2847 0 14.9999 0C6.71532 0 0 6.71625 0 15.0001C0 23.2847 6.71522 30 14.9999 30C23.2847 30 30 23.2848 30 15.0001ZM18.7594 10.3266H16.8263C16.3059 10.3266 15.9403 10.7672 15.9403 11.3166V12.1782H18.7012L18.2541 14.9747H15.9394V22.4709H13.1137V14.9747H11.2388V12.1782H13.1137V10.7522H13.1194C13.1691 9.12656 13.7335 7.57877 16.4869 7.48125V7.47095H18.7594V10.3266Z" fill="#F8FDFF"/>
</svg>

<svg width="30" height="30" viewBox="0 0 30 30" fill="none" xmlns="http://www.w3.org/2000/svg"><path fill-rule="evenodd" clip-rule="evenodd" d="M30 15c0-8.284-6.715-15-15-15S0 6.716 0 15c0 8.285 6.715 15 15 15s15-6.715 15-15zm-11.24-4.673h-1.934c-.52 0-.886.44-.886.99v.861h2.761l-.447 2.797H15.94v7.496h-2.825v-7.496H11.24v-2.797h1.875v-1.426h.005c.05-1.625.614-3.173 3.368-3.27V7.47h2.272v2.856z" fill="#F8FDFF"/></svg>
